X: 1
T: The Panelmine Jig
C: John Campbell (1956)
B: Winston Fitzgerald Colln.
S: From a transcription by Terry Traub 4-29-2000
S: Printed MS of unknown origin, from Dan Wheatley
M: 6/8
L: 1/8
R: Jig
K: A
F |:\
"A"EAc e3 | "D"dcd f3 | "A"ecA EAc | "E7"dBB B2c |\
"A"EAc e3 | "D"dcd f2a | "E7"gaf eae | "A"cAA [1 ABc :|[2 A2 ||
|: d |\
"A"cee ecA | "D"dfa f2d | "A"cee ecA | "Bm"Bcd "E"c2B |\
"A"cee ecA | "D"df[af] f2a | "E7"gaf eae | "A"cAA A2 :|
